assets/See-no-evil monkey/Flat/see-no-evil_monkey_flat.svg

<svg width="32" height="32" viewBox="0 0 32 32" fill="none" xmlns="http://www.w3.org/2000/svg">
<path d="M6.5 20C9.53757 20 12 17.5376 12 14.5C12 11.4624 9.53757 9 6.5 9C3.46243 9 1 11.4624 1 14.5C1 17.5376 3.46243 20 6.5 20Z" fill="#E39D89"/>
<path d="M25.5 20C28.5376 20 31 17.5376 31 14.5C31 11.4624 28.5376 9 25.5 9C22.4624 9 20 11.4624 20 14.5C20 17.5376 22.4624 20 25.5 20Z" fill="#E39D89"/>
<path d="M4 14C4 7.92487 8.92487 3 15 3H17C23.0751 3 28 7.92487 28 14V16C28 22.0751 23.0751 27 17 27H15C8.92487 27 4 22.0751 4 16V14Z" fill="#7D4533"/>
<path d="M11.4844 6.46875C9.00772 6.46875 7 8.47647 7 10.9531V11.0938C7 12.6893 7.83324 14.0902 9.08832 14.885C9.0302 15.2481 9 15.6205 9 16C9 19.866 12.134 23 16 23C19.866 23 23 19.866 23 16C23 15.6205 22.9698 15.2481 22.9117 14.885C24.1668 14.0902 25 12.6893 25 11.0938V10.9531C25 8.47647 22.9923 6.46875 20.5156 6.46875H11.4844Z" fill="#E39D89"/>
<path d="M16 21C18.2091 21 20 19.2091 20 17H12C12 19.2091 13.7909 21 16 21Z" fill="#BB1D80"/>
<path d="M10.8037 11.7617L12.5101 9.48646C12.9252 8.93301 13.7004 8.80023 14.276 9.18398C14.7954 9.53026 14.9798 10.1769 14.7743 10.7257L14.9446 10.5554C15.5275 9.97249 16.4725 9.97249 17.0554 10.5554C17.5931 11.0931 17.6406 11.9493 17.1655 12.5431L16.9423 12.822C17.4521 12.6154 18.0683 12.7578 18.4256 13.2341C18.7651 13.6868 18.7613 14.3103 18.4163 14.7588L14 20.5L13.5 16.5L13.7857 16.1786L12 13.5H9.74999L8.49999 15C8.49999 15 7.38753 11.9062 8.99999 11.1C9.73193 10.734 10.4639 11.3859 10.8037 11.7617Z" fill="#FBB8AB"/>
<path d="M14.5 20C16.2777 17.0371 14 13.5 11 11.5L1.97335 22.7833C1.34327 23.5709 1 24.5495 1 25.5581V25.9862C1 28.2029 2.79706 30 5.01384 30C6.22507 30 7.37163 29.4536 8.12638 28.5063C9.97435 26.1868 13.4206 21.7989 14.5 20Z" fill="#8C5543"/>
<path d="M21.1963 11.7617L19.4899 9.48646C19.0748 8.93301 18.2996 8.80023 17.724 9.18398C17.2046 9.53026 17.0202 10.1769 17.2257 10.7257L17.0554 10.5554C16.4725 9.97249 15.5275 9.97249 14.9446 10.5554C14.4068 11.0931 14.3594 11.9493 14.8345 12.5431L15.0576 12.822C14.5479 12.6154 13.9316 12.7578 13.5744 13.2341C13.2349 13.6868 13.2387 14.3103 13.5837 14.7588L18 20.5L18.5 16.5L18.2143 16.1786L20 13.5H22.25L23.5 15C23.5 15 24.6125 11.9062 23 11.1C22.2681 10.734 21.5361 11.3859 21.1963 11.7617Z" fill="#FBB8AB"/>
<path d="M17.5 20C15.7223 17.0371 18 13.5 21 11.5L30.0266 22.7833C30.6567 23.5709 31 24.5495 31 25.5581V25.9862C31 28.2029 29.2029 30 26.9862 30C25.7749 30 24.6284 29.4536 23.8736 28.5063C22.0256 26.1868 18.5794 21.7989 17.5 20Z" fill="#8C5543"/>
</svg>

<svg xmlns="http://www.w3.org/2000/svg" width="32" height="32" fill="none"><path fill="#E39D89" d="M6.5 20a5.5 5.5 0 1 0 0-11 5.5 5.5 0 0 0 0 11ZM25.5 20a5.5 5.5 0 1 0 0-11 5.5 5.5 0 0 0 0 11Z"/><path fill="#7D4533" d="M4 14C4 7.925 8.925 3 15 3h2c6.075 0 11 4.925 11 11v2c0 6.075-4.925 11-11 11h-2C8.925 27 4 22.075 4 16v-2Z"/><path fill="#E39D89" d="M11.484 6.469A4.484 4.484 0 0 0 7 10.953v.14a4.48 4.48 0 0 0 2.088 3.792 7 7 0 1 0 13.823 0A4.48 4.48 0 0 0 25 11.094v-.14a4.484 4.484 0 0 0-4.484-4.485h-9.032Z"/><path fill="#BB1D80" d="M16 21a4 4 0 0 0 4-4h-8a4 4 0 0 0 4 4Z"/><path fill="#FBB8AB" d="m10.804 11.762 1.706-2.276a1.304 1.304 0 0 1 2.264 1.24l.17-.17a1.493 1.493 0 0 1 2.222 1.987l-.224.279a1.261 1.261 0 0 1 1.474 1.937L14 20.5l-.5-4 .286-.321L12 13.5H9.75L8.5 15s-1.112-3.094.5-3.9c.732-.366 1.464.286 1.804.662Z"/><path fill="#8C5543" d="M14.5 20c1.778-2.963-.5-6.5-3.5-8.5L1.973 22.783A4.442 4.442 0 0 0 1 25.558v.428A4.014 4.014 0 0 0 5.014 30a3.975 3.975 0 0 0 3.112-1.494C9.974 26.186 13.421 21.8 14.5 20Z"/><path fill="#FBB8AB" d="M21.196 11.762 19.49 9.486a1.304 1.304 0 0 0-2.264 1.24l-.17-.17a1.493 1.493 0 0 0-2.222 1.987l.224.279a1.261 1.261 0 0 0-1.474 1.937L18 20.5l.5-4-.286-.321L20 13.5h2.25L23.5 15s1.113-3.094-.5-3.9c-.732-.366-1.464.286-1.804.662Z"/><path fill="#8C5543" d="M17.5 20c-1.778-2.963.5-6.5 3.5-8.5l9.027 11.283c.63.788.973 1.766.973 2.775v.428A4.014 4.014 0 0 1 26.986 30a3.976 3.976 0 0 1-3.112-1.494C22.026 26.186 18.579 21.8 17.5 20Z"/></svg>
